public/ai_tagging.svg

<svg width="32" height="32" viewBox="0 0 32 32" fill="none" xmlns="http://www.w3.org/2000/svg">
<path d="M20.9203 6.6132e-08H11.0749C9.62046 -0.000158878 8.18025 0.286193 6.83651 0.842701C5.49278 1.39921 4.27183 2.21497 3.2434 3.2434C2.21497 4.27183 1.39921 5.49278 0.842701 6.83651C0.286193 8.18025 -0.000158878 9.62046 6.6132e-08 11.0749V20.9203C6.6132e-08 23.8575 1.16681 26.6745 3.24376 28.7514C5.3207 30.8283 8.13764 31.9952 11.0749 31.9952H20.9203C23.8574 31.9948 26.6742 30.8279 28.751 28.751C30.8279 26.6742 31.9948 23.8574 31.9952 20.9203V11.0749C31.9952 9.6205 31.7087 8.18037 31.1521 6.8367C30.5956 5.49304 29.7798 4.27215 28.7514 3.24376C27.723 2.21536 26.5021 1.39959 25.1585 0.843025C23.8148 0.28646 22.3747 6.6132e-08 20.9203 6.6132e-08V6.6132e-08Z" fill="#7D45F5"/>
<path d="M0 20.9203C4.58718e-06 23.5558 0.93979 26.105 2.65053 28.1098C4.36126 30.1147 6.73083 31.4438 9.33353 31.8584V17.2162H0V20.9203Z" fill="url(#paint0_linear_33_223)"/>
<path d="M20.2088 11.457H2.16493C1.979 11.457 1.80066 11.5308 1.66907 11.6622C1.53748 11.7935 1.46339 11.9717 1.46307 12.1577V26.426C2.43297 28.1182 3.83267 29.5242 5.52052 30.5017C7.20837 31.4792 9.12447 31.9935 11.0749 31.9925H20.9082V12.1577C20.9082 11.9721 20.8346 11.794 20.7035 11.6627C20.5723 11.5313 20.3944 11.4574 20.2088 11.457V11.457Z" fill="#E8EEFF"/>
<path d="M23.5704 8.04623H5.52652C5.43451 8.04623 5.3434 8.06436 5.25839 8.09957C5.17338 8.13478 5.09614 8.18639 5.03108 8.25145C4.96602 8.31651 4.91441 8.39375 4.8792 8.47876C4.84399 8.56376 4.82587 8.65487 4.82587 8.74688V30.0641C6.6648 31.3272 8.84387 32.0024 11.0748 32.0002H20.9203C22.0571 32.0011 23.1873 31.8268 24.271 31.4835V8.74688C24.271 8.65487 24.2529 8.56376 24.2177 8.47876C24.1825 8.39375 24.1309 8.31651 24.0658 8.25145C24.0008 8.18639 23.9235 8.13478 23.8385 8.09957C23.7535 8.06436 23.6624 8.04623 23.5704 8.04623V8.04623Z" fill="#E8EEFF"/>
<path d="M8.51424 11.2662C8.51424 10.9301 8.24172 10.6576 7.90556 10.6576C7.56939 10.6576 7.29688 10.9301 7.29688 11.2662C7.29688 11.6024 7.56939 11.8749 7.90556 11.8749C8.24172 11.8749 8.51424 11.6024 8.51424 11.2662Z" fill="#80A1FF"/>
<path d="M20.2994 10.6576H10.5774C10.2413 10.6576 9.96875 10.9301 9.96875 11.2662C9.96875 11.6024 10.2413 11.8749 10.5774 11.8749H20.2994C20.6356 11.8749 20.9081 11.6024 20.9081 11.2662C20.9081 10.9301 20.6356 10.6576 20.2994 10.6576Z" fill="#80A1FF"/>
<path d="M16.0689 13.4648H10.5774C10.2413 13.4648 9.96875 13.7374 9.96875 14.0735C9.96875 14.4097 10.2413 14.6822 10.5774 14.6822H16.0689C16.4051 14.6822 16.6776 14.4097 16.6776 14.0735C16.6776 13.7374 16.4051 13.4648 16.0689 13.4648Z" fill="#80A1FF"/>
<path fill-rule="evenodd" clip-rule="evenodd" d="M24.2708 11.8596C24.268 11.8596 24.2652 11.8596 24.2623 11.8596C22.1571 11.8596 20.4505 10.153 20.4505 8.04782C20.4505 8.04739 20.4505 8.04697 20.4505 8.04654H23.5702C23.6622 8.04654 23.7533 8.06466 23.8383 8.09987C23.9233 8.13508 24.0006 8.18669 24.0656 8.25176C24.1307 8.31682 24.1823 8.39406 24.2175 8.47906C24.2527 8.56407 24.2708 8.65518 24.2708 8.74719V11.8596Z" fill="#CBD8FF"/>
<path fill-rule="evenodd" clip-rule="evenodd" d="M16.3189 16.6328H13.3547C12.3349 16.6326 11.3348 16.9136 10.4643 17.445C9.59393 17.9764 8.88692 18.7376 8.42109 19.6448C7.92212 20.6121 7.14998 21.4116 6.20055 21.944L4.82587 22.7148V30.0662C5.2281 30.3418 5.64742 30.5899 6.0809 30.8091L6.08075 30.8094C6.11947 30.8288 6.1583 30.8481 6.19722 30.8671C6.91189 31.218 7.66393 31.491 8.44045 31.6805L8.44866 31.6781C9.30558 31.8856 10.1871 31.9908 11.0748 31.9892H20.9203C22.0568 31.99 23.1868 31.817 24.271 31.4761V16.627H16.5651C16.4828 16.6268 16.4007 16.6288 16.3189 16.6328Z" fill="url(#paint1_linear_33_223)"/>
<path d="M16.8132 17.2135C15.983 17.2135 15.1685 17.4398 14.4574 17.8682C13.7463 18.2965 13.1655 18.9107 12.7775 19.6446L6.71484 31.0995C8.09147 31.6891 9.57364 31.9925 11.0712 31.9913H20.9166C23.8539 31.9913 26.6708 30.8245 28.7477 28.7476C30.8247 26.6706 31.9915 23.8537 31.9915 20.9165V17.2135H16.8132Z" fill="#FCD34D"/>
<path fill-rule="evenodd" clip-rule="evenodd" d="M4.82592 11.457V30.0648C4.66341 29.9537 4.50381 29.8372 4.34743 29.7169C3.17778 28.8201 2.19727 27.7 1.46307 26.4211V25.816C1.72192 25.6774 1.93832 25.4712 2.0892 25.2193C2.24008 24.9674 2.31978 24.6793 2.31983 24.3857V24.2647C2.31993 23.9133 2.39905 23.5664 2.55133 23.2497C2.70361 22.9329 2.92516 22.6545 3.19957 22.435C3.47402 22.2152 3.69556 21.9366 3.84784 21.6197C3.99838 21.3064 4.07741 20.9636 4.07928 20.6161V11.457H4.82592Z" fill="url(#paint2_linear_33_223)"/>
<path d="M21.9476 21.2688H15.9733L16.5784 20.1107H22.5527L21.9476 21.2688Z" fill="white"/>
<path d="M24.2712 11.2262C26.0275 11.2262 27.4513 9.80238 27.4513 8.04603C27.4513 6.28968 26.0275 4.86588 24.2712 4.86588C22.5148 4.86588 21.091 6.28968 21.091 8.04603C21.091 9.80238 22.5148 11.2262 24.2712 11.2262Z" fill="#2DD4BF"/>
<path d="M24.2712 5.59194C24.7565 5.59194 25.231 5.73587 25.6346 6.00553C26.0382 6.27519 26.3527 6.65846 26.5384 7.10689C26.7242 7.55532 26.7728 8.04875 26.6781 8.5248C26.5834 9.00085 26.3497 9.43812 26.0065 9.78133C25.6633 10.1245 25.226 10.3583 24.7499 10.453C24.2739 10.5477 23.7804 10.4991 23.332 10.3133C22.8836 10.1276 22.5003 9.81302 22.2307 9.40945C21.961 9.00588 21.8171 8.5314 21.8171 8.04603C21.818 7.39546 22.0769 6.77181 22.5369 6.31179C22.9969 5.85176 23.6206 5.5929 24.2712 5.59194V5.59194ZM24.2712 4.86588C23.6422 4.86588 23.0273 5.05239 22.5044 5.40183C21.9814 5.75127 21.5738 6.24794 21.3331 6.82904C21.0924 7.41013 21.0294 8.04956 21.1521 8.66645C21.2748 9.28334 21.5777 9.84999 22.0224 10.2947C22.4672 10.7395 23.0339 11.0424 23.6507 11.1651C24.2676 11.2878 24.9071 11.2248 25.4882 10.9841C26.0692 10.7434 26.5659 10.3358 26.9154 9.81283C27.2648 9.28986 27.4513 8.675 27.4513 8.04603C27.451 7.2027 27.1158 6.394 26.5195 5.79768C25.9232 5.20135 25.1145 4.8662 24.2712 4.86588Z" fill="white"/>
<path d="M23.0767 7.95982L24.1343 9.01866L26.4795 6.42056" stroke="white" stroke-linecap="round" stroke-linejoin="round"/>
<path d="M29.7686 13.6559H29.7303C28.6925 13.6559 28.167 12.8759 28.1199 11.8854L28.1158 11.7383C28.1158 12.7975 27.5904 13.6559 26.5013 13.6559H26.5387C27.6131 13.6559 28.1329 14.4928 28.1532 15.537V15.4643V15.6106C28.1337 14.5379 28.6648 13.6559 29.7686 13.6559Z" fill="#FFFBEB"/>
<path d="M11.012 3.61841H10.9879C10.3344 3.61841 10.0036 3.1309 9.97389 2.51188L9.97133 2.41992C9.97133 3.08196 9.6405 3.61841 8.95477 3.61841H8.97833C9.65484 3.61841 9.98208 4.14151 9.99488 4.79415V4.74866V4.84013C9.98259 4.16969 10.317 3.61841 11.012 3.61841Z" fill="#FFFBEB"/>
<path d="M13.3112 5.19505H13.2942C12.8329 5.19505 12.5994 4.8538 12.5784 4.42048L12.5766 4.35611C12.5766 4.81953 12.3431 5.19505 11.8591 5.19505H11.8757C12.3532 5.19505 12.5842 5.56122 12.5933 6.01807V5.98623V6.05026C12.5846 5.58095 12.8206 5.19505 13.3112 5.19505Z" fill="#FFFBEB"/>
<defs>
<linearGradient id="paint0_linear_33_223" x1="0" y1="19.9062" x2="1.39162" y2="19.9062" gradientUnits="userSpaceOnUse">
<stop stop-color="#FEF3C7"/>
<stop offset="1" stop-color="#FCD34D"/>
</linearGradient>
<linearGradient id="paint1_linear_33_223" x1="18.0305" y1="25.8359" x2="6.71605" y2="12.3432" gradientUnits="userSpaceOnUse">
<stop stop-color="#A9BEFD"/>
<stop offset="0.778063" stop-color="#A9BEFD" stop-opacity="0"/>
</linearGradient>
<linearGradient id="paint2_linear_33_223" x1="-4.53783" y1="16.5177" x2="7.32119" y2="26.0775" gradientUnits="userSpaceOnUse">
<stop stop-color="#CBD8FF" stop-opacity="0"/>
<stop offset="1" stop-color="#A9BEFD"/>
</linearGradient>
</defs>
</svg>

<svg width="32" height="32" viewBox="0 0 32 32" fill="none" xmlns="http://www.w3.org/2000/svg"><path d="M20.92 0h-9.845A11.074 11.074 0 0 0 0 11.075v9.845a11.075 11.075 0 0 0 11.075 11.075h9.845A11.076 11.076 0 0 0 31.995 20.92v-9.845A11.074 11.074 0 0 0 20.92 0Z" fill="#7D45F5"/><path d="M0 20.92a11.076 11.076 0 0 0 9.334 10.938V17.216H0v3.704Z" fill="url(#a)"/><path d="M20.209 11.457H2.165a.702.702 0 0 0-.702.7v14.269a11.073 11.073 0 0 0 9.612 5.567h9.833V12.157a.7.7 0 0 0-.7-.701Z" fill="#E8EEFF"/><path d="M23.57 8.046H5.527a.7.7 0 0 0-.701.7v21.318A11.018 11.018 0 0 0 11.075 32h9.845a11.044 11.044 0 0 0 3.351-.517V8.747a.7.7 0 0 0-.7-.7Z" fill="#E8EEFF"/><path d="M8.514 11.266a.609.609 0 1 0-1.217 0 .609.609 0 0 0 1.217 0Zm11.786-.608h-9.723a.609.609 0 0 0 0 1.217H20.3a.609.609 0 1 0 0-1.217Zm-4.231 2.807h-5.492a.609.609 0 0 0 0 1.217h5.492a.609.609 0 1 0 0-1.217Z" fill="#80A1FF"/><path fill-rule="evenodd" clip-rule="evenodd" d="M24.27 11.86h-.008a3.812 3.812 0 0 1-3.811-3.812v-.001h3.12a.7.7 0 0 1 .7.7v3.113Z" fill="#CBD8FF"/><path fill-rule="evenodd" clip-rule="evenodd" d="M16.319 16.633h-2.964a5.545 5.545 0 0 0-4.934 3.012 5.557 5.557 0 0 1-2.22 2.299l-1.375.77v7.352c.402.276.821.524 1.255.743a11.015 11.015 0 0 0 2.36.871l.008-.002c.857.208 1.738.313 2.626.311h9.845a11.134 11.134 0 0 0 3.351-.513V16.627h-7.706c-.082 0-.164.002-.246.006Z" fill="url(#b)"/><path d="M16.813 17.213a4.565 4.565 0 0 0-4.035 2.432L6.715 31.099c1.376.59 2.859.893 4.356.892h9.846A11.075 11.075 0 0 0 31.99 20.916v-3.703H16.813Z" fill="#FCD34D"/><path fill-rule="evenodd" clip-rule="evenodd" d="M4.826 11.457v18.608a11.146 11.146 0 0 1-3.363-3.644v-.605a1.623 1.623 0 0 0 .857-1.43v-.121a2.344 2.344 0 0 1 .88-1.83 2.347 2.347 0 0 0 .88-1.819v-9.159h.746Z" fill="url(#c)"/><path d="M21.948 21.269h-5.975l.605-1.158h5.975l-.605 1.158Z" fill="#fff"/><path d="M24.271 11.226a3.18 3.18 0 1 0 0-6.36 3.18 3.18 0 0 0 0 6.36Z" fill="#2DD4BF"/><path d="M24.271 5.592a2.454 2.454 0 1 1 0 4.908 2.454 2.454 0 0 1 0-4.908Zm0-.726a3.18 3.18 0 1 0 0 6.36 3.18 3.18 0 0 0 0-6.36Z" fill="#fff"/><path d="m23.077 7.96 1.057 1.059L26.48 6.42" stroke="#fff" stroke-linecap="round" stroke-linejoin="round"/><path d="M29.769 13.656h-.039c-1.038 0-1.563-.78-1.61-1.77l-.004-.148c0 1.06-.526 1.918-1.615 1.918h.038c1.074 0 1.594.837 1.614 1.881v-.073.147c-.02-1.073.512-1.955 1.616-1.955ZM11.012 3.618h-.024c-.654 0-.984-.487-1.014-1.106L9.97 2.42c0 .662-.33 1.198-1.016 1.198h.023c.677 0 1.004.524 1.017 1.176V4.75v.091c-.012-.67.322-1.222 1.017-1.222Zm2.299 1.577h-.017c-.461 0-.695-.341-.716-.775l-.001-.064c0 .464-.234.84-.718.84h.017c.477 0 .708.365.717.822v-.032.064c-.008-.47.228-.855.718-.855Z" fill="#FFFBEB"/><defs><linearGradient id="a" x1="0" y1="19.906" x2="1.392" y2="19.906" gradientUnits="userSpaceOnUse"><stop stop-color="#FEF3C7"/><stop offset="1" stop-color="#FCD34D"/></linearGradient><linearGradient id="b" x1="18.03" y1="25.836" x2="6.716" y2="12.343" gradientUnits="userSpaceOnUse"><stop stop-color="#A9BEFD"/><stop offset=".778" stop-color="#A9BEFD" stop-opacity="0"/></linearGradient><linearGradient id="c" x1="-4.538" y1="16.518" x2="7.321" y2="26.078" gradientUnits="userSpaceOnUse"><stop stop-color="#CBD8FF" stop-opacity="0"/><stop offset="1" stop-color="#A9BEFD"/></linearGradient></defs></svg>
